!!!!SEGMENT: pl-kk--kk-i-38--023_lasso-orlando-di--ad-te-domine-levavi.krn
!!!id: 16xx:1273
!!!COM: Lasso, Orlando di
!!!COM-rism: pe506
!!!CDT: ~1532-1594/06/14
!!!CNT: Franco-Flemish
!!!OTL: Ad te Domine levavi
!!!PDT:
!!!SMS-siglum: PL-Kk
!!!SMS-shelfmark: Kk.I.38
!!!NIFC-rismID: 1001154421
!!!URL-scan: http://repozytorium.nifc.pl/skany/pl-kk-nut--i-38
!!!ONB-nifc: Lib. 3. Fol. 20. 2da parte (jeśli występuje), należy do utworu tytułowego, skan 0014
!!!SMS-variant:
!!!SMS-altvar:
**kern	**text
*I"Baſso Ripieno.	*
*I'B rip	*
*clefF3	*
*k[]	*
*M2/1	*
*met(C|)	*
=1-	=1-
!LO:TX:a:t=Lib. 3. Fol. 20.	!
!LO:TX:t=P:problem:oddech/cezura na różnej wysokości:global	!
!LO:TX:t=P:problem:przy kluczu G Bn D	!
00r	.
=2-	=2-
.	.
=3-	=3-
00r	.
=4-	=4-
.	.
=5-	=5-
00r	.
=6-	=6-
.	.
=7-	=7-
!LO:TX:t=P:problem:kreska pseudotaktowa	!
1r	.
1.G	Ad
=8-	=8-
.	.
*2\right	*
!LO:TX:t=P:problem:kreska pseudotaktowa	!
2A\	Te
2.F/	Do-
4F/	-mi-
=9-	=9-
2E,</	-ne
2D/	le-
!LO:TX:t=P:problem:kreska pseudotaktowa	!
1d	-va-
=10-	=10-
2Bn,<\	-vi
2.c\	a-
4B\	-ni-
!LO:TX:t=P:problem:kreska pseudotaktowa	!
2A\	-mam
=11-	=11-
2.G\	me-
4F/	.
1E	.
=12-	=12-
!LO:TX:t=P:problem:kreska pseudotaktowa	!
1D,<	-am
1D	le-
=13-	=13-
2G\	-va-
2E,</	-vi
2.A\	a-
!LO:TX:t=P:problem:kreska pseudotaktowa	!
4A\	-ni-
=14-	=14-
2E,</	-mam
2A\	me-
2D,</	-am
2D/	le-
=15-	=15-
1d	-va-
!LO:TX:t=P:problem:kreska pseudotaktowa	!
1G,<	-vi
=16-	=16-
2.c\	a-
4B\	-ni-
!LO:TX:t=P:problem:kreska pseudotaktowa	!
1A	-mam
!LO:LB:g=original	!
=17-	=17-
2.F/	me-
4D/	.
1A	.
=18-	=18-
!LO:TX:t=P:problem:kreska pseudotaktowa	!
1D,<	-am.
00r	.
=19-	=19-
.	.
=20-	=20-
.	.
00r	.
=21-	=21-
.	.
=22-	=22-
.	.
!LO:TX:t=P:problem:kreska pseudotaktowa	!
1r	.
=23-	=23-
1.E	De-
2E/	-us
=24-	=24-
1F	me-
2E,</	-(us)
!LO:TX:t=P:problem:kreska pseudotaktowa	!
2E/	in
=25-	=25-
2A\	Te
2A\	con-
1G	-fi-
=26-	=26-
2F,</	-do
2F/	non
2C/	e-
2C/	-ru-
=27-	=27-
1G	-be-
!LO:TX:t=P:problem:kreska pseudotaktowa	!
0A,<	-ſcam.
=28-	=28-
.	.
1E	in
=29-	=29-
2E/	Te
2E/	con-
1D	-fi-
=30-	=30-
!LO:TX:t=P:problem:kreska pseudotaktowa	!
0A	-do.
=31-	=31-
0r	.
=32-	=32-
!LO:TX:t=P:problem:kreska pseudotaktowa	!
1r	.
2r	.
2.c\	non
=33-	=33-
.	.
4B\	.
4A\	.
4G\	.
2F,<\	.
2G\	e-
=34-	=34-
2A\	-ru-
2F\	-be-
!LO:TX:t=P:problem:wykreślony dźwięk	!
1E,<	-scam
!LO:LB:g=original	!
=35-	=35-
!LO:TX:t=P:problem:kreska pseudotaktowa	!
1r	.
2r	.
2.c\	non
=36-	=36-
.	.
4B\	.
4A\	.
!LO:TX:t=P:problem:kreska pseudotaktowa	!
4G\	.
2.F/	.
4E/	.
=37-	=37-
4D/	.
4E/	.
!LO:TX:t=P:problem:kreska pseudotaktowa	!
2F/	.
2E/	e-
2E/	-ru-
=38-	=38-
1AA	-be-
!LO:TX:t=P:problem:kreska pseudotaktowa	!
1D,<	-scam.
=39-	=39-
!LO:TX:t=P:problem:kreska pseudotaktowa	!
00r	.
=40-	=40-
.	.
=41-	=41-
2r	.
!LO:TX:t=P:problem:kreska pseudotaktowa	!
2D/	ne
2A,<\	que
2A\	ir-
=42-	=42-
2.F/	-ri-
4C/	-de-
(2D/	-ant
2A\)	.
=43-	=43-
!LO:TX:t=P:problem:kreska pseudotaktowa	!
0D	me!
=44-	=44-
!LO:TX:t=P:problem:kreska pseudotaktowa	!
0r	.
=45-	=45-
2r	.
2A\	ne
2F\	que
!LO:TX:t=P:problem:kreska pseudotaktowa	!
2F\	ir-
=46-	=46-
2.B-X\	-ri-
4F\	-de-
(2G\	-ant
2A\)	.
=47-	=47-
!LO:TX:t=P:problem:kreska pseudotaktowa	!
1G	me
!LO:TX:t=P:problem:kreska pseudotaktowa	!
1r	.
=48-	=48-
2c\	I-
2c\	-ni-
2A\	-mi-
!LO:TX:t=P:problem:kreska pseudotaktowa	!
!LO:SIC:v:t=custos F	!
2A\	-ci
!LO:LB:g=original	!
=49-	=49-
1F	me-
!LO:TX:t=P:problem:kreska pseudotaktowa	!
1C	-i
=50-	=50-
1.G	In-
2F#X\	-i-
=51-	=51-
2G\	-mi-
2G\	-ci
1G	me-
=52-	=52-
0Dl;	-i.
=53||	=53||
*M2/1	*
*met(C|)	*
!LO:TX:a:B:t=2da \nparte	!
1.A	Vi-
2A\	-as
=54-	=54-
1G	tu-
2D,</	-as
1d\	Do-
=55-	=55-
.	.
!LO:TX:t=P:problem:kreska pseudotaktowa	!
2c\	-mi-
4F\	-ne
4G\	.
4A\	.
4B\	.
=56-	=56-
2c,<\	.
2c\	de-
4C/	-mon-
4D/	.
4E/	.
!LO:TX:t=P:problem:kreska pseudotaktowa	!
4F/	.
=57-	=57-
4G\	.
4A\	.
4Bn\	.
4G\	.
4c\	.
4B\	.
4A\	.
!LO:TX:t=P:problem:kreska pseudotaktowa	!
4G\	.
=58-	=58-
2F/	.
2.E/	-stra
4D/	.
4C/	.
!LO:TX:t=P:problem:kreska pseudotaktowa	!
4D/	.
!LO:LB:g=original	!
=59-	=59-
4E/	.
4F/	.
2G,</	.
2.F\	mi-
!LO:TX:t=P:problem:kreska pseudotaktowa	!
4G\	.
=60-	=60-
1A	.
2.E/	-hi!
4F/	.
=61-	=61-
!LO:TX:t=P:problem:kreska pseudotaktowa	!
1G,<	.
!LO:TX:t=P:problem:kreska pseudotaktowa	!
0r	.
=62-	=62-
.	.
1.E	Vi-
=63-	=63-
.	.
2D/	-as
1F	tu-
=64-	=64-
2E,</	-as
4A\	de-
!LO:TX:t=P:problem:kreska pseudotaktowa	!
4B\	.
4c\	.
4A\	.
1d\	.
=65-	=65-
.	.
2D/	-mon-
!LO:TX:t=P:problem:kreska pseudotaktowa	!
1A,<	-ſtra
=66-	=66-
1r	.
2r	.
2D/	de-
=67-	=67-
2A\	-mon-
2A\	-ſtra
1c	mi-
=68-	=68-
!LO:TX:t=P:problem:kreska pseudotaktowa	!
0C	-hi
=69-	=69-
1r	.
2r	.
!LO:TX:t=P:problem:kreska pseudotaktowa	!
2A\	et
=70-	=70-
2.B-X\	se-
4B-\	-mi-
2B-\	-tas
!LO:TX:t=P:problem:kreska pseudotaktowa	!
2B-\	tu-
=71-	=71-
2A,<\	-as
2d\	e-
4c\	-do-
4Bny\	.
4A\	.
!LO:TX:t=P:problem:kreska pseudotaktowa	!
4B\	.
!LO:LB:g=original	!
=72-	=72-
2c\	.
2c\	-ce
!LO:TX:t=P:problem:kreska pseudotaktowa	!
1G	me.
=73-	=73-
00r	.
=74-	=74-
.	.
=75-	=75-
00r	.
=76-	=76-
.	.
=77-	=77-
0r	.
=78-	=78-
!LO:TX:t=P:problem:kreska pseudotaktowa	!
1r	.
1E	et
=79-	=79-
2.F/	se-
4F/	-mi
2F,</	tas
2F/	tu-
=80-	=80-
2E/	-as
!LO:TX:t=P:problem:kreska pseudotaktowa	!
2A\	e-
4G/	-do-
4F/	.
4E/	.
4F/	.
=81-	=81-
2G\	.
2G\	-ce
!LO:TX:t=P:problem:kreska pseudotaktowa	!
1D	me,
=82-	=82-
0r	.
=83-	=83-
2r	.
2.E/	di-
4E/	-ri-
!LO:TX:t=P:problem:kreska pseudotaktowa	!
2E/	-ge
=84-	=84-
2A\	me
2D/	in
2G\	Ve-
!LO:TX:t=P:problem:kreska pseudotaktowa	!
2F\	-ri-
=85-	=85-
2F/	-ta-
!LO:TX:t=P:problem:kreska pseudotaktowa	!
2C/	-te
2.G\	Tu-
!LO:TX:t=P:problem:kreska pseudotaktowa	!
4F/	.
=86-	=86-
2.D/	.
4E/	.
1F	.
=87-	=87-
!LO:TX:t=P:problem:kreska pseudotaktowa	!
1C,<	-a.
!LO:LB:g=original	!
0r	.
=88-	=88-
.	.
!LO:TX:t=P:problem:kreska pseudotaktowa	!
1r	.
=89-	=89-
1A	et
2G#X\	do-
2.A\	-ce
=90-	=90-
.	.
4E/	.
!LO:TX:t=P:problem:kreska pseudotaktowa	!
2F/	.
!LO:TX:t=P:problem:kreska pseudotaktowa	!
1E,<	me
=91-	=91-
0r	.
=92-	=92-
2r	.
!LO:TX:t=P:problem:kreska pseudotaktowa	!
2A\	et
2D/	do-
4Gny\	-ce
!LO:TX:t=P:problem:kreska pseudotaktowa	!
4A\	.
=93-	=93-
!LO:TX:a:t=P:problem:♮ above	!
4Bn\	.
4c\	.
2G\	.
!LO:TX:t=P:problem:kreska pseudotaktowa	!
1C	me
=94-	=94-
0r	.
=95-	=95-
!LO:TX:t=P:problem:kreska pseudotaktowa	!
1r	.
1F	qui-
=96-	=96-
2D/	-a
2F\	Tu
!LO:TX:t=P:problem:kreska pseudotaktowa	!
1G	es
=97-	=97-
2r	.
2d\	Sal-
4c\	-va-
4B\	.
4A\	.
!LO:TX:t=P:problem:kreska pseudotaktowa	!
4G\	.
=98-	=98-
2F/	.
2G\	-tor
2.C/	me-
4D/	.
=99-	=99-
1E	.
!LO:TX:t=P:problem:kreska pseudotaktowa	!
1AA	-(us).
=100-	=100-
1A	qui-
1F	-a
=101-	=101-
!LO:TX:t=P:problem:kreska pseudotaktowa	!
1A	tu
!LO:LB:g=original	!
2.Bn\	es
4A\	.
=102-	=102-
2G,<\	.
2F#X\	Sal-
2G\	-va-
!LO:TX:t=P:problem:kreska pseudotaktowa	!
2G\	-tor
=103-	=103-
1c	me-
!LO:TX:t=P:problem:kreska pseudotaktowa	!
1C	-(us)!
=104-	=104-
!LO:TX:t=P:problem:kreska pseudotaktowa	!
0r	.
=105-	=105-
1G	qui-
2E/	-a
2G\	tu
=106-	=106-
2A,<\	es
1c	Sal-
1A\	-va-
=107-	=107-
.	.
!LO:TX:t=P:problem:kreska pseudotaktowa	!
2A\	-tor
1D	me-
=108-	=108-
!LO:TX:t=P:problem:kreska pseudotaktowa	!
1G,<	-(us),
1C	Sal-
=109-	=109-
2.c\	-va-
4B\	.
2.A\	.
!LO:TX:t=P:problem:kreska pseudotaktowa	!
4G\	.
=110-	=110-
2Fny/	.
2D/	-tor
1E	me-
=111-	=111-
0AAl;	-(us).
==	==
*-	*-
!!!RDF**kern: < = below
!!!RDF**kern: l = terminal long
!!!ENC: Andrzej Kubiczek
!!!END: 2021-07-30
!!!ENC: Katarzyna Serwa
!!!END: 2021-07-04
